static/fa/svgs/solid/ruler.svg

<svg xmlns="http://www.w3.org/2000/svg" viewBox="0 0 512 512"><!--! Font Awesome Free 6.1.1 by @fontawesome - https://fontawesome.com License - https://fontawesome.com/license/free (Icons: CC BY 4.0, Fonts: SIL OFL 1.1, Code: MIT License) Copyright 2022 Fonticons, Inc.--><path d="M177.9 494.1c-18.7 18.7-49.1 18.7-67.8 0l-92.16-92.2c-18.745-18.7-18.745-49.1 0-67.8l50.75-50.8 48.01 48c6.2 6.3 16.4 6.3 22.6 0 6.3-6.2 6.3-16.4 0-22.6l-47.99-48 41.39-41.4 48 48c6.2 6.3 16.4 6.3 22.6 0 6.3-6.2 6.3-16.4 0-22.6l-48-48 41.4-41.4 48 48c6.2 6.3 16.4 6.3 22.6 0 6.3-6.2 6.3-16.4 0-22.6l-48-48 41.4-41.39 48 47.99c6.2 6.3 16.4 6.3 22.6 0 6.3-6.2 6.3-16.4 0-22.6l-48-48.01 50.8-50.75c18.7-18.745 49.1-18.745 67.8 0l92.2 92.16c18.7 18.7 18.7 49.1 0 67.8L177.9 494.1z"/></svg>

<svg xmlns="http://www.w3.org/2000/svg" viewBox="0 0 512 512"><!--! Font Awesome Free 6.1.1 by @fontawesome - https://fontawesome.com License - https://fontawesome.com/license/free (Icons: CC BY 4.0, Fonts: SIL OFL 1.1, Code: MIT License) Copyright 2022 Fonticons, Inc. --><path d="M177.9 494.1C159.2 512.8 128.8 512.8 110.1 494.1L17.94 401.9C-.8054 383.2-.8054 352.8 17.94 334.1L68.69 283.3L116.7 331.3C122.9 337.6 133.1 337.6 139.3 331.3C145.6 325.1 145.6 314.9 139.3 308.7L91.31 260.7L132.7 219.3L180.7 267.3C186.9 273.6 197.1 273.6 203.3 267.3C209.6 261.1 209.6 250.9 203.3 244.7L155.3 196.7L196.7 155.3L244.7 203.3C250.9 209.6 261.1 209.6 267.3 203.3C273.6 197.1 273.6 186.9 267.3 180.7L219.3 132.7L260.7 91.31L308.7 139.3C314.9 145.6 325.1 145.6 331.3 139.3C337.6 133.1 337.6 122.9 331.3 116.7L283.3 68.69L334.1 17.94C352.8-.8055 383.2-.8055 401.9 17.94L494.1 110.1C512.8 128.8 512.8 159.2 494.1 177.9L177.9 494.1z"/></svg>
